X: 131163
T: Merrily Kiss the Quaker
S: "Johnny O'Leary of Sliabh Luachra" (#127)
Z: B.Black
L: 1/8
M: 12/8
R: slide
Q: 360
K: G
G2B D2G B/c/BA AGE|GEE DEG A2B AGE|
G2B D2G BAA AGE|GAB D2E G3 G3 :|
G2B dBd edB d2B|G2B d2B A2B AGE|
G2B d2d edB d2B|GAB DED G3 G3 :|
G2B d2d ede g2e|dBA GBd e2f g2a|
ged BAB A/B/AG EDE|GAB D/E/DE G3 G3 :|
